_site/images/features-page/icon-code-branch.svg

<svg fill="none" height="30" viewBox="0 0 30 30" width="30" xmlns="http://www.w3.org/2000/svg"><rect fill="#00a0b6" height="30" rx="7" width="30"/><path clip-rule="evenodd" d="m16.873 11.5488c.2396-1.2021 1.2943-2.068 2.5201-2.06882 1.2492.02297 2.3011.94052 2.4935 2.17512.1924 1.2345-.5305 2.4286-1.7135 2.8306-.3393 1.5798-1.7356 2.7082-3.3514 2.7086h-3.4286c-.69.002-1.3115.4175-1.5771 1.0543 1.1448.4726 1.79 1.6941 1.5351 2.9061-.255 1.212-1.3377 2.0701-2.5759 2.0414-1.23819-.0286-2.28004-.9359-2.47863-2.1584-.1986-1.2225.5025-2.4129 1.66796-2.832v-7.1657c-1.18076-.4175-1.88904-1.62487-1.67726-2.85922.21178-1.23434 1.28202-2.13659 2.53443-2.13659 1.2523 0 2.3226.90225 2.5344 2.13659.2117 1.23435-.4965 2.44172-1.6773 2.85922v4.92c.5177-.3116 1.11-.4775 1.7143-.48h3.4286c.6931.0014 1.3188-.4146 1.5857-1.0543-1.1318-.4707-1.774-1.6748-1.5344-2.8769zm-5.194-2.92597c0-.47339-.3837-.85714-.8571-.85714s-.85718.38375-.85718.85714.38378.85714.85718.85714.8571-.38375.8571-.85714zm-.8571 12.85717c-.4734 0-.85718-.3838-.85718-.8572s.38378-.8571.85718-.8571.8571.3837.8571.8571-.3837.8572-.8571.8572zm7.7144-9.4287c0 .4734.3837.8571.8571.8571s.8571-.3837.8571-.8571-.3837-.8571-.8571-.8571-.8571.3837-.8571.8571z" fill="#fff" fill-rule="evenodd"/></svg>

<svg width="30" height="30" viewBox="0 0 30 30" fill="none" xmlns="http://www.w3.org/2000/svg">
<rect width="30" height="30" rx="7" fill="#00A0B6"/>
<path fill-rule="evenodd" clip-rule="evenodd" d="M16.873 11.5488C17.1126 10.3467 18.1673 9.4808 19.3931 9.47998C20.6423 9.50295 21.6942 10.4205 21.8866 11.6551C22.079 12.8896 21.3561 14.0837 20.1731 14.4857C19.8338 16.0655 18.4375 17.1939 16.8217 17.1943H13.3931C12.7031 17.1963 12.0816 17.6118 11.816 18.2486C12.9608 18.7212 13.606 19.9427 13.3511 21.1547C13.0961 22.3667 12.0134 23.2248 10.7752 23.1961C9.53701 23.1675 8.49516 22.2602 8.29657 21.0377C8.09797 19.8152 8.79907 18.6248 9.96453 18.2057V11.04C8.78377 10.6225 8.07549 9.41513 8.28727 8.18078C8.49905 6.94644 9.56929 6.04419 10.8217 6.04419C12.074 6.04419 13.1443 6.94644 13.3561 8.18078C13.5678 9.41513 12.8596 10.6225 11.6788 11.04V15.96C12.1965 15.6484 12.7888 15.4825 13.3931 15.48H16.8217C17.5148 15.4814 18.1405 15.0654 18.4074 14.4257C17.2756 13.955 16.6334 12.7509 16.873 11.5488ZM11.679 8.62283C11.679 8.14944 11.2953 7.76569 10.8219 7.76569C10.3485 7.76569 9.96472 8.14944 9.96472 8.62283C9.96472 9.09622 10.3485 9.47997 10.8219 9.47997C11.2953 9.47997 11.679 9.09622 11.679 8.62283ZM10.8219 21.48C10.3485 21.48 9.96472 21.0962 9.96472 20.6228C9.96472 20.1494 10.3485 19.7657 10.8219 19.7657C11.2953 19.7657 11.679 20.1494 11.679 20.6228C11.679 21.0962 11.2953 21.48 10.8219 21.48ZM18.5363 12.0513C18.5363 12.5247 18.92 12.9084 19.3934 12.9084C19.8668 12.9084 20.2505 12.5247 20.2505 12.0513C20.2505 11.5779 19.8668 11.1942 19.3934 11.1942C18.92 11.1942 18.5363 11.5779 18.5363 12.0513Z" fill="white"/>
</svg>
